X:28
T: Wo fehlt es dir, mein Herz (Band 1), S. 87
N: P0802
O: Lothringen
S: PINCK, Louis: Verklingende Weisen, Bd 1, Metz 1928]
R: Liebesklage?]
M: 4/4
L: 1/8
K: G
D2G2A2 | B3AG2F2 | G4z2
B2 | G3DD3C | C4D4 | B,2
D2G2A2 | B3AG2F2 | G4z2
B2 | G3DD3C | C4D4 | B,2z4
E2 | E3DE2F2 | G4F2E2 | D2F2A3F | G2z4
D2 | D2E2F2G2 | A6c2 | B2A2G2FF | G2

